src/Pure/16/symbolic/actions/wheelchair-symbolic.svg

<?xml version="1.0" encoding="UTF-8" standalone="no"?>
<svg
   width="16"
   height="16.012"
   version="1.1"
   id="svg5"
   sodipodi:docname="wheelchair-symbolic.svg"
   inkscape:version="1.4.2 (ebf0e940d0, 2025-05-08)"
   xmlns:inkscape="http://www.inkscape.org/namespaces/inkscape"
   xmlns:sodipodi="http://sodipodi.sourceforge.net/DTD/sodipodi-0.dtd"
   xmlns="http://www.w3.org/2000/svg"
   xmlns:svg="http://www.w3.org/2000/svg">
  <defs
      id="defs5">
      <style
          id="current-color-scheme"
          type="text/css">
          .ColorScheme-Text { color:#363636; }
          .ColorScheme-NegativeText { color:#da4453; }
      </style>
  </defs>
  <sodipodi:namedview
     id="namedview5"
     pagecolor="#ffffff"
     bordercolor="#000000"
     borderopacity="0.25"
     inkscape:showpageshadow="2"
     inkscape:pageopacity="0.0"
     inkscape:pagecheckerboard="0"
     inkscape:deskcolor="#d1d1d1"
     inkscape:zoom="17.55402"
     inkscape:cx="3.2756031"
     inkscape:cy="11.194017"
     inkscape:window-width="1920"
     inkscape:window-height="1010"
     inkscape:window-x="0"
     inkscape:window-y="0"
     inkscape:window-maximized="1"
     inkscape:current-layer="svg5" />
  <path
     id="path1"
     style="fill:currentColor"
     class="ColorScheme-Text"
     d="M 7.5 0 A 1.5 1.5 0 0 0 6 1.5 A 1.5 1.5 0 0 0 7.5 3 A 1.5 1.5 0 0 0 9 1.5 A 1.5 1.5 0 0 0 7.5 0 z M 7 5 C 6.446 5 6 5.446 6 6 L 6 7 L 6 9 C 6 10.108 6.892 11 8 11 L 9 11 L 10.716797 11 L 13.572266 15.757812 A 0.5 0.5 0 0 0 14.259766 15.929688 A 0.5 0.5 0 0 0 14.431641 15.242188 L 11.431641 10.242188 A 0.5 0.5 0 0 0 11.123047 10.015625 A 0.5 0.5 0 0 0 11 10 L 9 10 L 9 6.4140625 L 10.439453 7.8535156 A 0.50005 0.50005 0 0 0 10.792969 8 L 13.792969 8 A 0.5 0.5 0 0 0 14.292969 7.5 A 0.5 0.5 0 0 0 13.792969 7 L 11 7 L 9.1464844 5.1464844 A 0.5 0.5 0 0 0 9 5.0449219 L 9 5 L 8 5 L 7 5 z M 7 6 L 8 6 L 8 7 L 8 10 C 7.446 10 7 9.554 7 9 L 7 7 L 7 6 z " />
  <path
     id="path5"
     style="fill:currentColor;opacity:0.35"
     class="ColorScheme-Text"
     d="M 5 7.0351562 A 4.506 4.506 0 0 0 1 11.505859 A 4.506 4.506 0 0 0 5.5058594 16.011719 A 4.506 4.506 0 0 0 9.9765625 12 L 8.9648438 12 A 3.494 3.494 0 0 1 5.5058594 15 A 3.494 3.494 0 0 1 2.0117188 11.505859 A 3.494 3.494 0 0 1 5 8.0507812 L 5 7.0351562 z " />
</svg>

<svg width="16" height="16.012" version="1.1" xmlns="http://www.w3.org/2000/svg">
 <circle cx="7.5" cy="1.5" r="1.5" fill="#363636" stop-color="#000000" style="paint-order:stroke fill markers"/>
 <path d="m6 7v2c0 1.108 0.892 2 2 2h1v-1h-1c-0.554 0-1-0.446-1-1v-2h-1z" fill="#363636" stop-color="#000000" style="paint-order:stroke fill markers"/>
 <rect x="8" y="5" width="1" height="6" rx="0" ry="0" fill="#363636" stop-color="#000000" style="paint-order:stroke fill markers"/>
 <path d="m7 5c-0.554 0-1 0.446-1 1v1h1v-1h1v1h1v-1c0-0.554-0.446-1-1-1h-1z" fill="#363636" stop-color="#000000" style="paint-order:stroke fill markers"/>
 <path d="m8.4395 5.1465a0.5 0.5 0 0 0 0 0.70703l2 2a0.50005 0.50005 0 0 0 0.35352 0.14648h3a0.5 0.5 0 0 0 0.5-0.5 0.5 0.5 0 0 0-0.5-0.5h-2.793l-1.8535-1.8535a0.5 0.5 0 0 0-0.70703 0z" color="#000000" fill="#363636" stroke-linecap="round" stroke-linejoin="round" style="-inkscape-stroke:none"/>
 <rect x="8" y="10" width="3" height="1" fill="#363636" stop-color="#000000" stroke-linecap="round" stroke-linejoin="round" style="paint-order:stroke fill markers"/>
 <path d="m11.123 10.015a0.5 0.5 0 0 0-0.37891 0.05469 0.5 0.5 0 0 0-0.17188 0.6875l3 5a0.5 0.5 0 0 0 0.6875 0.17188 0.5 0.5 0 0 0 0.17188-0.6875l-3-5a0.5 0.5 0 0 0-0.30859-0.22656z" color="#000000" fill="#363636" stroke-linecap="round" stroke-linejoin="round" style="-inkscape-stroke:none"/>
 <path d="m5 7.0352a4.506 4.506 0 0 0-4 4.4707 4.506 4.506 0 0 0 4.5059 4.5059 4.506 4.506 0 0 0 4.4707-4.0117h-1.0117a3.494 3.494 0 0 1-3.459 3 3.494 3.494 0 0 1-3.4941-3.4941 3.494 3.494 0 0 1 2.9883-3.4551v-1.0156z" fill="#363636" opacity=".35" stop-color="#000000" stroke-linecap="round" stroke-linejoin="round" style="paint-order:stroke fill markers"/>
</svg>
